packages/tokens/icons/setTo/size24Px.svg

<svg viewBox="0 0 24 24" fill="none" xmlns="http://www.w3.org/2000/svg" width="1em" height="1em"><path d="M18.7062 3.72092C18.4053 2.79386 17.418 2.2759 16.4843 2.55552L11.1823 4.14324C10.6606 4.29949 10.1411 4.74384 9.88336 5.19789L4.47181 14.7299C3.98324 15.5905 4.2875 16.6831 5.14754 17.1713L12.4563 21.3207C13.3163 21.8089 14.4104 21.5102 14.899 20.6497L20.3106 11.1177C20.5797 10.6436 20.7254 9.94217 20.5355 9.35727L18.7062 3.72092Z" stroke="currentColor" stroke-linecap="round"/><path d="M10.5 11.5L11.5 15.5L15.5 8.5" stroke="currentColor" stroke-linecap="round" stroke-linejoin="round"/></svg>

<svg xmlns="http://www.w3.org/2000/svg" fill="none" viewBox="0 0 24 24" width="1em" height="1em"><path stroke="currentColor" stroke-linecap="round" d="M18.706 3.72a1.795 1.795 0 0 0-2.222-1.164l-5.302 1.587c-.521.156-1.04.6-1.299 1.055L4.472 14.73a1.791 1.791 0 0 0 .676 2.441l7.308 4.15c.86.488 1.954.19 2.443-.671l5.412-9.532c.269-.474.414-1.176.224-1.76L18.706 3.72Z"/><path stroke="currentColor" stroke-linecap="round" stroke-linejoin="round" d="m10.5 11.5 1 4 4-7"/></svg>
